22x22/apps/cewl.svg

<svg width="22" height="22" version="1.1" xmlns="http://www.w3.org/2000/svg">
 <path d="m11 16.5s4.012154-0.01212 6.000001-2c0.999999-1 0-6-1.000001-7-3-1-5-1-5-1s-2 0-5 1c-1 1-2 6-1 7 1.9878457 1.987846 6 2 6 2z" style="opacity:.2"/>
 <path d="m11 16s4.012154-0.01212 6.000001-2c0.999999-1 0-6-1.000001-7-3-1-5-1-5-1s-2 0-5 1c-1 1-2 6-1 7 1.9878457 1.987846 6 2 6 2z" style="fill:#20b28f"/>
 <path d="m11 6s-2 0-5 1c-0.758828 0.758828-1.5135061 3.813793-1.3984375 5.683594 0.0223127-1.873933 0.7027628-4.4879193 1.3984375-5.183594 3-1 5-1 5-1s2 0 5 1c0.695675 0.6956747 1.376125 3.309661 1.398438 5.183594 0.115068-1.869801-0.639609-4.924766-1.398438-5.683594-3-1-5-1-5-1z" style="fill:#f4f4f7;opacity:.1"/>
 <rect x="7" y="10" width="8" height="6" rx=".99999958" ry="1.0000002" style="fill:#f4f4f7"/>
 <path d="m2 17.75c0-2.25 3-2.25 3-2.25h12.000001s2.999999 0 2.999999 2.25c0 2.75-8 3.75-8 3.75h-2s-8-1-8-3.75z" style="opacity:.2"/>
 <path d="m2 17.25c0-2.25 3-2.25 3-2.25h12.000001s2.999999 0 2.999999 2.25c0 2.75-8 3.75-8 3.75h-2s-8-1-8-3.75z" style="fill:#48deba"/>
 <circle cx="11" cy="5.5" r="4" style="opacity:.2"/>
 <circle cx="11" cy="5" r="4" style="fill:#48deba"/>
 <path d="m5 15s-3 0-3 2.25c0 0.05485 0.0230587 0.10474 0.0292969 0.158203 0.2894206-1.905504 2.9707031-1.908203 2.9707031-1.908203h12s2.681283 0.002699 2.970703 1.908203c0.006238-0.053463 0.029297-0.103353 0.029297-0.158203 0-2.25-3-2.25-3-2.25h-12z" style="fill:#f4f4f7;opacity:.2"/>
 <path d="M 11 1 A 4 4 0 0 0 7 5 A 4 4 0 0 0 7.0097656 5.2832031 A 4 4 0 0 1 11 1.5 A 4 4 0 0 1 14.990234 5.2109375 A 4 4 0 0 0 15 5 A 4 4 0 0 0 11 1 z " style="fill:#f4f4f7;opacity:.2"/>
</svg>

<svg width="22" height="22" xmlns="http://www.w3.org/2000/svg"><path d="M11 16.5s4.012-.012 6-2c1-1 0-6-1-7-3-1-5-1-5-1s-2 0-5 1c-1 1-2 6-1 7 1.988 1.988 6 2 6 2z" style="opacity:.2"/><path d="M11 16s4.012-.012 6-2c1-1 0-6-1-7-3-1-5-1-5-1S9 6 6 7c-1 1-2 6-1 7 1.988 1.988 6 2 6 2z" style="fill:#20b28f"/><path d="M11 6S9 6 6 7c-.759.759-1.514 3.814-1.398 5.684C4.624 10.81 5.304 8.196 6 7.5c3-1 5-1 5-1s2 0 5 1c.696.696 1.376 3.31 1.398 5.184.116-1.87-.64-4.925-1.398-5.684-3-1-5-1-5-1z" style="fill:#f4f4f7;opacity:.1"/><rect x="7" y="10" width="8" height="6" rx="1" ry="1" style="fill:#f4f4f7"/><path d="M2 17.75c0-2.25 3-2.25 3-2.25h12s3 0 3 2.25c0 2.75-8 3.75-8 3.75h-2s-8-1-8-3.75z" style="opacity:.2"/><path d="M2 17.25C2 15 5 15 5 15h12s3 0 3 2.25C20 20 12 21 12 21h-2s-8-1-8-3.75z" style="fill:#48deba"/><circle cx="11" cy="5.5" r="4" style="opacity:.2"/><circle cx="11" cy="5" r="4" style="fill:#48deba"/><path d="M5 15s-3 0-3 2.25c0 .055.023.105.03.158C2.318 15.503 5 15.5 5 15.5h12s2.681.003 2.97 1.908c.007-.053.03-.103.03-.158C20 15 17 15 17 15H5zM11 1a4 4 0 0 0-4 4 4 4 0 0 0 .01.283A4 4 0 0 1 11 1.5a4 4 0 0 1 3.99 3.71A4 4 0 0 0 15 5a4 4 0 0 0-4-4z" style="fill:#f4f4f7;opacity:.2"/></svg>
